src/img/default.svg

<?xml version="1.0" encoding="utf-8"?>
<!DOCTYPE svg PUBLIC "-//W3C//DTD SVG 1.1//EN" "http://www.w3.org/Graphics/SVG/1.1/DTD/svg11.dtd">
<svg version="1.1" id="Layer_1" xmlns="http://www.w3.org/2000/svg" xmlns:xlink="http://www.w3.org/1999/xlink" x="0px" y="0px"
	 width="512px" height="512px" viewBox="0 0 512 512" enable-background="new 0 0 512 512" xml:space="preserve">
		<path fill-rule="evenodd" clip-rule="evenodd" fill="#da2a1d" d="M177.615,288c7.438-36.521,39.688-64,78.396-64
			c38.709,0,70.958,27.479,78.376,64h32c-7.834-54.125-54.084-96-110.376-96c-56.271,0-102.541,41.875-110.375,96H177.615z
			 M256.011,160c8.833,0,16-7.167,16-16v-32c0-8.833-7.167-16-16-16c-8.832,0-16,7.167-16,16v32
			C240.011,152.833,247.179,160,256.011,160z M403.073,156.917c-6.249-6.25-16.374-6.25-22.625,0l-22.625,22.625
			c-6.249,6.25-6.249,16.375,0,22.625c6.251,6.25,16.376,6.25,22.625,0l22.625-22.625
			C409.323,173.292,409.323,163.167,403.073,156.917z M154.177,179.542l-22.625-22.625c-6.249-6.25-16.373-6.25-22.625,0
			c-6.249,6.25-6.249,16.375,0,22.625l22.625,22.625c6.252,6.25,16.376,6.25,22.625,0
			C160.429,195.917,160.429,185.792,154.177,179.542z M352.011,320h-192c-8.832,0-16,7.167-16,16s7.168,16,16,16h192
			c8.833,0,16-7.167,16-16S360.844,320,352.011,320z M320.011,384h-128c-8.832,0-16,7.167-16,16s7.168,16,16,16h128
			c8.833,0,16-7.167,16-16S328.844,384,320.011,384z"/>
</svg>

<svg xmlns="http://www.w3.org/2000/svg" viewBox="0 0 512 512"><path fill-rule="evenodd" clip-rule="evenodd" fill="#da2a1d" d="M177.6 288c7.5-36.5 39.7-64 78.4-64s71 27.5 78.4 64h32c-7.8-54-54-96-110.4-96-56.3 0-102.5 42-110.4 96h32zM256 160c8.8 0 16-7.2 16-16v-32c0-8.8-7.2-16-16-16s-16 7.2-16 16v32c0 8.8 7.2 16 16 16zm147-3c-6.2-6.3-16.3-6.3-22.6 0l-22.6 22.5c-6.2 6.3-6.2 16.4 0 22.7 6.3 6.2 16.4 6.2 22.6 0l22.7-22.7c6.3-6.2 6.3-16.3 0-22.6zm-248.8 22.5L131.6 157c-6.3-6.3-16.4-6.3-22.7 0-6.3 6.2-6.3 16.3 0 22.5l22.6 22.7c6.2 6.2 16.3 6.2 22.6 0 6.2-6.3 6.2-16.4 0-22.7zM352 320H160c-8.8 0-16 7.2-16 16s7.2 16 16 16h192c8.8 0 16-7.2 16-16s-7.2-16-16-16zm-32 64H192c-8.8 0-16 7.2-16 16s7.2 16 16 16h128c8.8 0 16-7.2 16-16s-7.2-16-16-16z"/></svg>
